
a = CuePlayer(name: "test");

(
a.cueList[0] = {("yahoo" + 43.rand).postln};
a.cueList[1] = {("yahoo" + 43.rand).postln};
a.cueList[2] = {("yahoo" + 43.rand).postln};
a.cueList[3] = {("yahoo" + 43.rand).postln};
a.cueList[4] = {("yahoo" + 43.rand).postln};
a.cueList[5] = {("yahoo" + 43.rand).postln};
a.cueList[6] = {("yahoo" + 43.rand).postln};
)

a.cueList
